; G-Code generated by Simplify3D(R) Version 3.0.0
; Feb 12, 2016 at 3:50:50 PM
; Settings Summary
;   processName,Process1
;   applyToModels,adapterv1
;   profileName,PLA 195 T20 0.20L 50mm/s (modified)
;   profileVersion,2016-01-05 00:02:20
;   baseProfile,Duplicator_I3_60micron (modified)
;   printMaterial,PLA
;   printQuality,Medium
;   printExtruders,
;   extruderName,Extruder 1
;   extruderToolheadNumber,0
;   extruderDiameter,0.4
;   extruderAutoWidth,0
;   extruderWidth,0.4
;   extrusionMultiplier,0.8
;   extruderUseRetract,1
;   extruderRetractionDistance,1.9
;   extruderExtraRestartDistance,0
;   extruderRetractionZLift,0
;   extruderRetractionSpeed,2100
;   extruderUseCoasting,0
;   extruderCoastingDistance,0.2
;   extruderUseWipe,0
;   extruderWipeDistance,5
;   primaryExtruder,0
;   layerHeight,0.2
;   topSolidLayers,2
;   bottomSolidLayers,2
;   perimeterOutlines,2
;   printPerimetersInsideOut,1
;   startPointOption,2
;   startPointOriginX,0
;   startPointOriginY,0
;   startPointOriginZ,300
;   sequentialIslands,0
;   spiralVaseMode,0
;   firstLayerHeightPercentage,100
;   firstLayerWidthPercentage,100
;   firstLayerUnderspeed,0.5
;   useRaft,0
;   raftExtruder,0
;   raftLayers,1
;   raftOffset,3
;   raftSeparationDistance,0.14
;   raftInfill,85
;   disableRaftBaseLayers,1
;   useSkirt,0
;   skirtExtruder,0
;   skirtLayers,1
;   skirtOutlines,3
;   skirtOffset,3
;   usePrimePillar,0
;   primePillarExtruder,999
;   primePillarWidth,4
;   primePillarLocation,7
;   primePillarSpeedMultiplier,1
;   useOozeShield,0
;   oozeShieldExtruder,999
;   oozeShieldOffset,5
;   oozeShieldOutlines,1
;   oozeShieldSidewallShape,0
;   oozeShieldSidewallAngle,30
;   oozeShieldSpeedMultiplier,1
;   infillExtruder,0
;   internalInfillPattern,Triangular
;   externalInfillPattern,Rectilinear
;   infillPercentage,30
;   outlineOverlapPercentage,20
;   infillExtrusionWidthPercentage,105
;   minInfillLength,5
;   infillLayerInterval,1
;   infillAngles,0,60,-60
;   overlapInfillAngles,1
;   generateSupport,0
;   supportExtruder,0
;   supportInfillPercentage,40
;   supportExtraInflation,0
;   denseSupportLayers,2
;   denseSupportInfillPercentage,70
;   supportLayerInterval,1
;   supportHorizontalPartOffset,0.1
;   supportUpperSeparationLayers,1
;   supportLowerSeparationLayers,1
;   supportType,1
;   supportGridSpacing,4
;   maxOverhangAngle,20
;   supportAngles,0
;   temperatureName,Extruder 1 Temperature,Heated Bed
;   temperatureNumber,0,0
;   temperatureSetpointCount,1,1
;   temperatureSetpointLayers,1,1
;   temperatureSetpointTemperatures,195,50
;   temperatureStabilizeAtStartup,1,1
;   temperatureHeatedBed,0,1
;   temperatureRelayBetweenLayers,0,0
;   temperatureRelayBetweenLoops,0,0
;   fanLayers,1,2
;   fanSpeeds,0,100
;   blipFanToFullPower,0
;   adjustSpeedForCooling,0
;   minSpeedLayerTime,5
;   minCoolingSpeedSlowdown,20
;   increaseFanForCooling,0
;   minFanLayerTime,45
;   maxCoolingFanSpeed,100
;   increaseFanForBridging,0
;   bridgingFanSpeed,100
;   use5D,1
;   relativeEdistances,0
;   allowEaxisZeroing,1
;   independentExtruderAxes,0
;   includeM10123,0
;   stickySupport,1
;   applyToolheadOffsets,0
;   gcodeXoffset,2
;   gcodeYoffset,1
;   gcodeZoffset,0
;   overrideMachineDefinition,1
;   machineTypeOverride,0
;   strokeXoverride,199
;   strokeYoverride,200
;   strokeZoverride,183
;   originOffsetXoverride,0
;   originOffsetYoverride,0
;   originOffsetZoverride,0
;   homeXdirOverride,-1
;   homeYdirOverride,-1
;   homeZdirOverride,-1
;   flipXoverride,1
;   flipYoverride,-1
;   flipZoverride,1
;   toolheadOffsets,0,0|0,0|0,0|0,0|0,0|0,0
;   overrideFirmwareConfiguration,1
;   firmwareTypeOverride,RepRap (Marlin/Repetier/Sprinter)
;   GPXconfigOverride,r2
;   baudRateOverride,250000
;   overridePrinterModels,0
;   printerModelsOverride
;   startingGcode,G28 ; home all axes
;   layerChangeGcode,
;   retractionGcode,
;   toolChangeGcode,
;   endingGcode,G91,G1 Z10,G92,G1 X10,M104 S0 ; turn off extruder,M140 S0 ; turn off bed,M84 ; disable motors,M106 S0
;   createX3G,0
;   celebration,0
;   celebrationSong,Random Song
;   createMB5G,0
;   postProcessing,
;   defaultSpeed,3000
;   outlineUnderspeed,0.5
;   solidInfillUnderspeed,0.8
;   supportUnderspeed,0.8
;   rapidXYspeed,6600
;   rapidZspeed,600
;   minBridgingArea,50
;   bridgingExtraInflation,0
;   bridgingExtrusionMultiplier,1
;   bridgingSpeedMultiplier,1
;   filamentDiameter,1.68
;   filamentPricePerKg,30
;   filamentDensity,1.25
;   useMinPrintHeight,0
;   minPrintHeight,0
;   useMaxPrintHeight,0
;   maxPrintHeight,0
;   useDiaphragm,0
;   diaphragmLayerInterval,20
;   robustSlicing,1
;   mergeAllIntoSolid,0
;   onlyRetractWhenCrossingOutline,1
;   retractBetweenLayers,1
;   useRetractionMinTravel,0
;   retractionMinTravel,3
;   retractWhileWiping,0
;   onlyWipeOutlines,1
;   avoidCrossingOutline,0
;   maxMovementDetourFactor,3
;   toolChangeRetractionDistance,12
;   toolChangeExtraRestartDistance,-0.5
;   toolChangeRetractionSpeed,600
;   allowThinWallGapFill,1
;   thinWallAllowedOverlapPercentage,10
;   horizontalSizeCompensation,0
G90
M82
M106 S0
M140 S50
M190 S50
M104 S195 T0
M109 S195 T0
G28 ; home all axes
G92 E0
G1 E-1.9000 F2100
G1 Z0.200 F600
; layer 1, Z = 0.2
T0
; tool H0.200 W0.400
; inner perimeter
G1 X79.374 Y72.621 F6600
G1 E0.0000 F630
G92 E0
G1 X79.533 Y72.451 E0.0067 F1125
G1 X79.718 Y72.309 E0.0135
G1 X79.924 Y72.200 E0.0202
G1 X80.145 Y72.127 E0.0269
G1 X80.376 Y72.092 E0.0336
G1 X80.609 Y72.095 E0.0404
G1 X80.838 Y72.137 E0.0471
G1 X81.057 Y72.216 E0.0538
G1 X81.284 Y72.345 E0.0613
G1 X83.940 Y74.023 E0.1521
G1 X86.513 Y75.407 E0.2364
G1 X89.142 Y76.582 E0.3195
G1 X91.765 Y77.521 E0.4000
G1 X94.382 Y78.231 E0.4783
G1 X97.004 Y78.718 E0.5553
G1 X99.600 Y78.984 E0.6306
G1 X101.952 Y79.038 E0.6985
G1 X104.576 Y78.892 E0.7744
G1 X107.158 Y78.532 E0.8497
G1 X109.737 Y77.957 E0.9260
G1 X112.272 Y77.180 E1.0025
G1 X114.867 Y76.161 E1.0830
G1 X117.446 Y74.917 E1.1657
G1 X120.014 Y73.441 E1.2512
G1 X121.654 Y72.369 E1.3078
G1 X121.885 Y72.238 E1.3154
G1 X122.104 Y72.157 E1.3222
G1 X122.333 Y72.115 E1.3289
G1 X122.561 Y72.111 E1.3355
G1 X122.793 Y72.146 E1.3422
G1 X123.015 Y72.218 E1.3490
G1 X123.222 Y72.327 E1.3557
G1 X123.408 Y72.468 E1.3625
G1 X123.568 Y72.638 E1.3692
G1 X123.697 Y72.833 E1.3760
G1 X123.792 Y73.047 E1.3827
G1 X123.850 Y73.273 E1.3895
G1 X123.872 Y73.531 E1.3970
G1 X123.872 Y116.114 E2.6264
G1 X123.928 Y116.114 E2.6280
G1 X123.928 Y129.346 E3.0100
G1 X122.278 Y128.092 E3.0699
G1 X119.651 Y126.364 E3.1607
G1 X117.016 Y124.887 E3.2479
G1 X114.377 Y123.657 E3.3319
G1 X111.737 Y122.666 E3.4133
G1 X109.103 Y121.909 E3.4925
G1 X106.474 Y121.379 E3.5699
G1 X103.785 Y121.069 E3.6481
G1 X101.193 Y120.987 E3.7229
G1 X98.645 Y121.116 E3.7966
G1 X96.034 Y121.464 E3.8726
G1 X93.427 Y122.030 E3.9497
G1 X90.820 Y122.819 E4.0283
G1 X88.128 Y123.873 E4.1118
G1 X85.600 Y125.085 E4.1927
G1 X83.047 Y126.540 E4.2776
G1 X81.288 Y127.680 E4.3381
G1 X81.057 Y127.811 E4.3457
G1 X80.838 Y127.890 E4.3525
G1 X80.608 Y127.933 E4.3592
G1 X80.382 Y127.936 E4.3657
G1 X80.145 Y127.900 E4.3727
G1 X79.929 Y127.829 E4.3792
G1 X79.721 Y127.720 E4.3860
G1 X79.535 Y127.578 E4.3927
G1 X79.376 Y127.408 E4.3995
G1 X79.247 Y127.213 E4.4062
G1 X79.152 Y127.000 E4.4130
G1 X79.094 Y126.774 E4.4197
G1 X79.072 Y126.516 E4.4272
G1 X79.072 Y73.511 E5.9575
G1 X79.094 Y73.254 E5.9650
G1 X79.151 Y73.028 E5.9717
G1 X79.246 Y72.815 E5.9784
G1 X79.374 Y72.621 E5.9851
; outer perimeter
G1 X79.059 Y72.373 F6600
G92 E0
G1 X79.264 Y72.153 E0.0087 F750
G1 X79.502 Y71.971 E0.0173
G1 X79.767 Y71.831 E0.0260
G1 X80.052 Y71.737 E0.0346
G1 X80.348 Y71.691 E0.0433
G1 X80.648 Y71.696 E0.0519
G1 X80.943 Y71.750 E0.0606
G1 X81.225 Y71.852 E0.0693
G1 X81.490 Y72.002 E0.0781
G1 X84.142 Y73.677 E0.1686
G1 X86.689 Y75.047 E0.2521
G1 X89.291 Y76.210 E0.3344
G1 X91.885 Y77.139 E0.4140
G1 X94.471 Y77.840 E0.4913
G1 X97.061 Y78.322 E0.5674
G1 X99.625 Y78.584 E0.6418
G1 X101.945 Y78.638 E0.7088
G1 X104.537 Y78.493 E0.7837
G1 X107.087 Y78.138 E0.8581
G1 X109.635 Y77.570 E0.9334
G1 X112.140 Y76.802 E1.0091
G1 X114.707 Y75.794 E1.0887
G1 X117.259 Y74.563 E1.1705
G1 X119.805 Y73.100 E1.2553
G1 X121.446 Y72.027 E1.3119
G1 X121.716 Y71.873 E1.3209
G1 X121.998 Y71.770 E1.3295
G1 X122.293 Y71.716 E1.3382
G1 X122.587 Y71.711 E1.3467
G1 X122.885 Y71.755 E1.3554
G1 X123.171 Y71.848 E1.3641
G1 X123.437 Y71.988 E1.3728
G1 X123.677 Y72.170 E1.3814
G1 X123.883 Y72.389 E1.3901
G1 X124.049 Y72.640 E1.3988
G1 X124.171 Y72.915 E1.4075
G1 X124.246 Y73.206 E1.4162
G1 X124.272 Y73.514 E1.4251
G1 X124.272 Y115.714 E2.6435
G1 X124.328 Y115.714 E2.6451
G1 X124.328 Y130.153 E3.0620
G1 X122.047 Y128.419 E3.1447
G1 X119.443 Y126.706 E3.2347
G1 X116.833 Y125.243 E3.3211
G1 X114.222 Y124.026 E3.4043
G1 X111.611 Y123.046 E3.4847
G1 X109.009 Y122.298 E3.5629
G1 X106.412 Y121.775 E3.6394
G1 X103.756 Y121.468 E3.7166
G1 X101.197 Y121.388 E3.7905
G1 X98.681 Y121.515 E3.8632
G1 X96.103 Y121.858 E3.9383
G1 X93.527 Y122.418 E4.0144
G1 X90.951 Y123.197 E4.0922
G1 X88.288 Y124.240 E4.1747
G1 X85.786 Y125.440 E4.2548
G1 X83.255 Y126.882 E4.3390
G1 X81.495 Y128.023 E4.3995
G1 X81.225 Y128.176 E4.4085
G1 X80.943 Y128.278 E4.4171
G1 X80.648 Y128.332 E4.4258
G1 X80.354 Y128.336 E4.4343
G1 X80.051 Y128.291 E4.4431
G1 X79.772 Y128.198 E4.4516
G1 X79.505 Y128.058 E4.4603
G1 X79.266 Y127.876 E4.4690
G1 X79.061 Y127.657 E4.4776
G1 X78.895 Y127.406 E4.4863
G1 X78.773 Y127.132 E4.4950
G1 X78.698 Y126.841 E4.5037
G1 X78.672 Y126.533 E4.5126
G1 X78.672 Y73.495 E6.0439
G1 X78.698 Y73.187 E6.0528
G1 X78.772 Y72.897 E6.0615
G1 X78.894 Y72.623 E6.0701
G1 X79.059 Y72.373 E6.0788
; inner perimeter
G1 X89.692 Y98.250 F6600
G92 E0
G1 X89.408 Y98.534 E0.0116 F1125
G1 X89.178 Y98.863 E0.0232
G1 X89.009 Y99.226 E0.0348
G1 X88.905 Y99.614 E0.0463
G1 X88.870 Y100.014 E0.0579
G1 X88.905 Y100.413 E0.0695
G1 X89.009 Y100.801 E0.0811
G1 X89.178 Y101.165 E0.0927
G1 X89.409 Y101.494 E0.1043
G1 X89.692 Y101.777 E0.1159
G1 X90.021 Y102.008 E0.1275
G1 X90.385 Y102.177 E0.1390
G1 X90.772 Y102.281 E0.1506
G1 X91.172 Y102.316 E0.1622
G1 X91.572 Y102.281 E0.1738
G1 X91.960 Y102.177 E0.1854
G1 X92.323 Y102.008 E0.1970
G1 X92.652 Y101.777 E0.2086
G1 X92.936 Y101.494 E0.2201
G1 X93.166 Y101.165 E0.2317
G1 X93.336 Y100.801 E0.2433
G1 X93.439 Y100.414 E0.2549
G1 X93.474 Y100.014 E0.2665
G1 X93.439 Y99.614 E0.2781
G1 X93.336 Y99.226 E0.2897
G1 X93.166 Y98.863 E0.3013
G1 X92.936 Y98.534 E0.3128
G1 X92.652 Y98.250 E0.3244
G1 X92.323 Y98.020 E0.3360
G1 X91.960 Y97.850 E0.3476
G1 X91.572 Y97.746 E0.3592
G1 X91.172 Y97.711 E0.3708
G1 X90.772 Y97.746 E0.3824
G1 X90.385 Y97.850 E0.3939
G1 X90.021 Y98.020 E0.4055
G1 X89.692 Y98.250 E0.4171
; outer perimeter
G1 X89.950 Y98.558 F6600
G92 E0
G1 X89.716 Y98.792 E0.0096 F750
G1 X89.526 Y99.063 E0.0191
G1 X89.386 Y99.364 E0.0287
G1 X89.300 Y99.684 E0.0383
G1 X89.271 Y100.014 E0.0478
G1 X89.300 Y100.344 E0.0574
G1 X89.386 Y100.664 E0.0670
G1 X89.526 Y100.964 E0.0765
G1 X89.716 Y101.236 E0.0861
G1 X89.950 Y101.470 E0.0957
G1 X90.222 Y101.660 E0.1052
G1 X90.522 Y101.800 E0.1148
G1 X90.842 Y101.886 E0.1244
G1 X91.172 Y101.914 E0.1339
G1 X91.502 Y101.886 E0.1435
G1 X91.822 Y101.800 E0.1531
G1 X92.123 Y101.660 E0.1626
G1 X92.394 Y101.470 E0.1722
G1 X92.628 Y101.236 E0.1818
G1 X92.818 Y100.964 E0.1913
G1 X92.958 Y100.664 E0.2009
G1 X93.044 Y100.344 E0.2104
G1 X93.073 Y100.014 E0.2200
G1 X93.044 Y99.684 E0.2296
G1 X92.958 Y99.364 E0.2391
G1 X92.818 Y99.063 E0.2487
G1 X92.628 Y98.792 E0.2583
G1 X92.394 Y98.558 E0.2678
G1 X92.123 Y98.368 E0.2774
G1 X91.822 Y98.228 E0.2870
G1 X91.502 Y98.142 E0.2965
G1 X91.172 Y98.113 E0.3061
G1 X90.842 Y98.142 E0.3157
G1 X90.522 Y98.228 E0.3252
G1 X90.222 Y98.368 E0.3348
G1 X89.950 Y98.558 E0.3444
; inner perimeter
G1 X85.041 Y107.095 F6600
G92 E0
G1 X84.597 Y107.539 E0.0181 F1125
G1 X84.237 Y108.054 E0.0363
G1 X83.972 Y108.623 E0.0544
G1 X83.809 Y109.229 E0.0725
G1 X83.754 Y109.855 E0.0906
G1 X83.809 Y110.480 E0.1088
G1 X83.972 Y111.087 E0.1269
G1 X84.237 Y111.656 E0.1450
G1 X84.597 Y112.170 E0.1632
G1 X85.041 Y112.614 E0.1813
G1 X85.555 Y112.974 E0.1994
G1 X86.124 Y113.240 E0.2175
G1 X86.731 Y113.402 E0.2357
G1 X87.357 Y113.457 E0.2538
G1 X87.982 Y113.402 E0.2719
G1 X88.589 Y113.240 E0.2901
G1 X89.158 Y112.974 E0.3082
G1 X89.672 Y112.614 E0.3263
G1 X90.116 Y112.170 E0.3445
G1 X90.476 Y111.656 E0.3626
G1 X90.742 Y111.087 E0.3807
G1 X90.904 Y110.480 E0.3988
G1 X90.959 Y109.855 E0.4170
G1 X90.904 Y109.229 E0.4351
G1 X90.742 Y108.623 E0.4532
G1 X90.476 Y108.054 E0.4714
G1 X90.116 Y107.539 E0.4895
G1 X89.672 Y107.095 E0.5076
G1 X89.158 Y106.735 E0.5257
G1 X88.589 Y106.470 E0.5439
G1 X87.982 Y106.307 E0.5620
G1 X87.357 Y106.252 E0.5801
G1 X86.731 Y106.307 E0.5983
G1 X86.124 Y106.470 E0.6164
G1 X85.555 Y106.735 E0.6345
G1 X85.041 Y107.095 E0.6526
; outer perimeter
G1 X85.299 Y107.403 F6600
G92 E0
G1 X84.905 Y107.797 E0.0161 F750
G1 X84.585 Y108.254 E0.0322
G1 X84.349 Y108.760 E0.0483
G1 X84.204 Y109.299 E0.0644
G1 X84.156 Y109.855 E0.0805
G1 X84.204 Y110.411 E0.0966
G1 X84.349 Y110.950 E0.1128
G1 X84.585 Y111.455 E0.1289
G1 X84.905 Y111.912 E0.1450
G1 X85.299 Y112.307 E0.1611
G1 X85.756 Y112.627 E0.1772
G1 X86.262 Y112.863 E0.1933
G1 X86.801 Y113.007 E0.2094
G1 X87.357 Y113.056 E0.2255
G1 X87.912 Y113.007 E0.2416
G1 X88.451 Y112.863 E0.2577
G1 X88.957 Y112.627 E0.2738
G1 X89.414 Y112.307 E0.2900
G1 X89.808 Y111.912 E0.3061
G1 X90.128 Y111.455 E0.3222
G1 X90.364 Y110.950 E0.3383
G1 X90.509 Y110.411 E0.3544
G1 X90.557 Y109.855 E0.3705
G1 X90.509 Y109.299 E0.3866
G1 X90.364 Y108.760 E0.4027
G1 X90.128 Y108.254 E0.4188
G1 X89.808 Y107.797 E0.4349
G1 X89.414 Y107.403 E0.4510
G1 X88.957 Y107.083 E0.4671
G1 X88.451 Y106.847 E0.4833
G1 X87.912 Y106.703 E0.4994
G1 X87.357 Y106.654 E0.5155
G1 X86.801 Y106.703 E0.5316
G1 X86.262 Y106.847 E0.5477
G1 X85.756 Y107.083 E0.5638
G1 X85.299 Y107.403 E0.5799
; inner perimeter
G1 X99.325 Y98.212 F6600
G92 E0
G1 X99.045 Y98.613 E0.0141 F1125
G1 X98.839 Y99.055 E0.0282
G1 X98.712 Y99.527 E0.0423
G1 X98.670 Y100.014 E0.0564
G1 X98.712 Y100.500 E0.0705
G1 X98.839 Y100.972 E0.0846
G1 X99.045 Y101.415 E0.0987
G1 X99.325 Y101.815 E0.1128
G1 X99.671 Y102.160 E0.1269
G1 X100.071 Y102.441 E0.1410
G1 X100.514 Y102.647 E0.1551
G1 X100.986 Y102.773 E0.1692
G1 X101.472 Y102.816 E0.1833
G1 X101.959 Y102.773 E0.1974
G1 X102.431 Y102.647 E0.2115
G1 X102.873 Y102.441 E0.2256
G1 X103.273 Y102.160 E0.2397
G1 X103.619 Y101.815 E0.2539
G1 X103.899 Y101.415 E0.2680
G1 X104.105 Y100.972 E0.2821
G1 X104.232 Y100.500 E0.2962
G1 X104.274 Y100.014 E0.3103
G1 X104.232 Y99.527 E0.3244
G1 X104.105 Y99.055 E0.3385
G1 X103.899 Y98.613 E0.3526
G1 X103.619 Y98.212 E0.3667
G1 X103.273 Y97.867 E0.3808
G1 X102.873 Y97.587 E0.3949
G1 X102.431 Y97.380 E0.4090
G1 X101.959 Y97.254 E0.4231
G1 X101.472 Y97.211 E0.4372
G1 X100.986 Y97.254 E0.4513
G1 X100.514 Y97.380 E0.4654
G1 X100.071 Y97.587 E0.4795
G1 X99.671 Y97.867 E0.4936
G1 X99.325 Y98.212 E0.5077
; outer perimeter
G1 X99.633 Y98.471 F6600
G92 E0
G1 X99.393 Y98.813 E0.0121 F750
G1 X99.216 Y99.193 E0.0242
G1 X99.108 Y99.597 E0.0362
G1 X99.071 Y100.014 E0.0483
G1 X99.108 Y100.431 E0.0604
G1 X99.216 Y100.835 E0.0725
G1 X99.393 Y101.214 E0.0846
G1 X99.633 Y101.557 E0.0967
G1 X99.929 Y101.853 E0.1087
G1 X100.272 Y102.093 E0.1208
G1 X100.651 Y102.270 E0.1329
G1 X101.055 Y102.378 E0.1450
G1 X101.472 Y102.414 E0.1571
G1 X101.889 Y102.378 E0.1692
G1 X102.293 Y102.270 E0.1812
G1 X102.673 Y102.093 E0.1933
G1 X103.015 Y101.853 E0.2054
G1 X103.311 Y101.557 E0.2175
G1 X103.551 Y101.214 E0.2296
G1 X103.728 Y100.835 E0.2416
G1 X103.836 Y100.431 E0.2537
G1 X103.873 Y100.014 E0.2658
G1 X103.836 Y99.597 E0.2779
G1 X103.728 Y99.193 E0.2900
G1 X103.551 Y98.813 E0.3021
G1 X103.311 Y98.471 E0.3141
G1 X103.015 Y98.175 E0.3262
G1 X102.673 Y97.935 E0.3383
G1 X102.293 Y97.758 E0.3504
G1 X101.889 Y97.649 E0.3625
G1 X101.472 Y97.613 E0.3745
G1 X101.055 Y97.649 E0.3866
G1 X100.651 Y97.758 E0.3987
G1 X100.272 Y97.935 E0.4108
G1 X99.929 Y98.175 E0.4229
G1 X99.633 Y98.471 E0.4350
G92 E0
