; G-Code generated by Simplify3D(R) Version 3.0.0
; Feb 12, 2016 at 5:12:32 PM
; Settings Summary
;   processName,Process1
;   applyToModels,adapterv2
;   profileName,PLA 195 T20 0.20L 50mm/s (modified)
;   profileVersion,2016-01-05 00:02:20
;   baseProfile,Duplicator_I3_60micron (modified)
;   printMaterial,PLA
;   printQuality,Medium
;   printExtruders,
;   extruderName,Extruder 1
;   extruderToolheadNumber,0
;   extruderDiameter,0.4
;   extruderAutoWidth,0
;   extruderWidth,0.4
;   extrusionMultiplier,0.8
;   extruderUseRetract,1
;   extruderRetractionDistance,1.9
;   extruderExtraRestartDistance,0
;   extruderRetractionZLift,0
;   extruderRetractionSpeed,2100
;   extruderUseCoasting,0
;   extruderCoastingDistance,0.2
;   extruderUseWipe,0
;   extruderWipeDistance,5
;   primaryExtruder,0
;   layerHeight,0.22
;   topSolidLayers,2
;   bottomSolidLayers,2
;   perimeterOutlines,2
;   printPerimetersInsideOut,1
;   startPointOption,2
;   startPointOriginX,0
;   startPointOriginY,0
;   startPointOriginZ,300
;   sequentialIslands,0
;   spiralVaseMode,0
;   firstLayerHeightPercentage,100
;   firstLayerWidthPercentage,100
;   firstLayerUnderspeed,0.5
;   useRaft,0
;   raftExtruder,0
;   raftLayers,1
;   raftOffset,3
;   raftSeparationDistance,0.14
;   raftInfill,85
;   disableRaftBaseLayers,1
;   useSkirt,0
;   skirtExtruder,0
;   skirtLayers,1
;   skirtOutlines,3
;   skirtOffset,3
;   usePrimePillar,0
;   primePillarExtruder,999
;   primePillarWidth,4
;   primePillarLocation,7
;   primePillarSpeedMultiplier,1
;   useOozeShield,0
;   oozeShieldExtruder,999
;   oozeShieldOffset,5
;   oozeShieldOutlines,1
;   oozeShieldSidewallShape,0
;   oozeShieldSidewallAngle,30
;   oozeShieldSpeedMultiplier,1
;   infillExtruder,0
;   internalInfillPattern,Triangular
;   externalInfillPattern,Rectilinear
;   infillPercentage,25
;   outlineOverlapPercentage,20
;   infillExtrusionWidthPercentage,105
;   minInfillLength,5
;   infillLayerInterval,1
;   infillAngles,0,60,-60
;   overlapInfillAngles,1
;   generateSupport,0
;   supportExtruder,0
;   supportInfillPercentage,40
;   supportExtraInflation,0
;   denseSupportLayers,2
;   denseSupportInfillPercentage,70
;   supportLayerInterval,1
;   supportHorizontalPartOffset,0.1
;   supportUpperSeparationLayers,1
;   supportLowerSeparationLayers,1
;   supportType,1
;   supportGridSpacing,4
;   maxOverhangAngle,20
;   supportAngles,0
;   temperatureName,Extruder 1 Temperature,Heated Bed
;   temperatureNumber,0,0
;   temperatureSetpointCount,1,1
;   temperatureSetpointLayers,1,1
;   temperatureSetpointTemperatures,195,50
;   temperatureStabilizeAtStartup,1,1
;   temperatureHeatedBed,0,1
;   temperatureRelayBetweenLayers,0,0
;   temperatureRelayBetweenLoops,0,0
;   fanLayers,1,2
;   fanSpeeds,0,100
;   blipFanToFullPower,0
;   adjustSpeedForCooling,0
;   minSpeedLayerTime,5
;   minCoolingSpeedSlowdown,20
;   increaseFanForCooling,0
;   minFanLayerTime,45
;   maxCoolingFanSpeed,100
;   increaseFanForBridging,0
;   bridgingFanSpeed,100
;   use5D,1
;   relativeEdistances,0
;   allowEaxisZeroing,1
;   independentExtruderAxes,0
;   includeM10123,0
;   stickySupport,1
;   applyToolheadOffsets,0
;   gcodeXoffset,2
;   gcodeYoffset,1
;   gcodeZoffset,0
;   overrideMachineDefinition,1
;   machineTypeOverride,0
;   strokeXoverride,199
;   strokeYoverride,200
;   strokeZoverride,183
;   originOffsetXoverride,0
;   originOffsetYoverride,0
;   originOffsetZoverride,0
;   homeXdirOverride,-1
;   homeYdirOverride,-1
;   homeZdirOverride,-1
;   flipXoverride,1
;   flipYoverride,-1
;   flipZoverride,1
;   toolheadOffsets,0,0|0,0|0,0|0,0|0,0|0,0
;   overrideFirmwareConfiguration,1
;   firmwareTypeOverride,RepRap (Marlin/Repetier/Sprinter)
;   GPXconfigOverride,r2
;   baudRateOverride,250000
;   overridePrinterModels,0
;   printerModelsOverride
;   startingGcode,G28 ; home all axes
;   layerChangeGcode,
;   retractionGcode,
;   toolChangeGcode,
;   endingGcode,G91,G1 Z10,G92,G1 X10,M104 S0 ; turn off extruder,M140 S0 ; turn off bed,M84 ; disable motors,M106 S0
;   createX3G,0
;   celebration,0
;   celebrationSong,Random Song
;   createMB5G,0
;   postProcessing,
;   defaultSpeed,3000
;   outlineUnderspeed,0.5
;   solidInfillUnderspeed,0.8
;   supportUnderspeed,0.8
;   rapidXYspeed,6600
;   rapidZspeed,600
;   minBridgingArea,50
;   bridgingExtraInflation,0
;   bridgingExtrusionMultiplier,1
;   bridgingSpeedMultiplier,1
;   filamentDiameter,1.68
;   filamentPricePerKg,30
;   filamentDensity,1.25
;   useMinPrintHeight,0
;   minPrintHeight,0
;   useMaxPrintHeight,0
;   maxPrintHeight,0
;   useDiaphragm,0
;   diaphragmLayerInterval,20
;   robustSlicing,1
;   mergeAllIntoSolid,0
;   onlyRetractWhenCrossingOutline,1
;   retractBetweenLayers,1
;   useRetractionMinTravel,0
;   retractionMinTravel,3
;   retractWhileWiping,0
;   onlyWipeOutlines,1
;   avoidCrossingOutline,0
;   maxMovementDetourFactor,3
;   toolChangeRetractionDistance,12
;   toolChangeExtraRestartDistance,-0.5
;   toolChangeRetractionSpeed,600
;   allowThinWallGapFill,1
;   thinWallAllowedOverlapPercentage,10
;   horizontalSizeCompensation,0
G90
M82
M106 S0
M140 S50
M190 S50
M104 S195 T0
M109 S195 T0
G28 ; home all axes
G92 E0
G1 E-1.9000 F2100
G1 Z0.220 F600
; layer 1, Z = 0.22
T0
; tool H0.220 W0.400
; inner perimeter
G1 X79.374 Y72.621 F6600
G1 E0.0000 F630
G92 E0
G1 X79.533 Y72.451 E0.0074 F1125
G1 X79.718 Y72.309 E0.0148
G1 X79.924 Y72.200 E0.0222
G1 X80.145 Y72.127 E0.0296
G1 X80.376 Y72.092 E0.0370
G1 X80.609 Y72.095 E0.0444
G1 X80.838 Y72.137 E0.0518
G1 X81.057 Y72.216 E0.0592
G1 X81.283 Y72.345 E0.0675
G1 X83.870 Y73.983 E0.1647
G1 X86.499 Y75.400 E0.2595
G1 X89.122 Y76.574 E0.3508
G1 X91.739 Y77.512 E0.4391
G1 X94.350 Y78.223 E0.5250
G1 X96.967 Y78.713 E0.6096
G1 X99.558 Y78.981 E0.6923
G1 X101.947 Y79.038 E0.7682
G1 X104.570 Y78.892 E0.8516
G1 X107.146 Y78.534 E0.9343
G1 X109.741 Y77.957 E1.0187
G1 X112.244 Y77.189 E1.1018
G1 X114.836 Y76.174 E1.1903
G1 X117.411 Y74.935 E1.2810
G1 X119.973 Y73.466 E1.3748
G1 X121.654 Y72.369 E1.4385
G1 X121.885 Y72.238 E1.4470
G1 X122.104 Y72.157 E1.4544
G1 X122.333 Y72.115 E1.4618
G1 X122.560 Y72.111 E1.4690
G1 X122.798 Y72.147 E1.4766
G1 X123.014 Y72.218 E1.4838
G1 X123.222 Y72.326 E1.4913
G1 X123.408 Y72.468 E1.4987
G1 X123.568 Y72.638 E1.5061
G1 X123.697 Y72.833 E1.5136
G1 X123.792 Y73.047 E1.5210
G1 X123.850 Y73.273 E1.5284
G1 X123.872 Y73.531 E1.5366
G1 X123.872 Y116.114 E2.8890
G1 X123.928 Y116.114 E2.8908
G1 X123.928 Y129.346 E3.3110
G1 X122.285 Y128.098 E3.3766
G1 X119.665 Y126.372 E3.4762
G1 X117.037 Y124.898 E3.5719
G1 X114.404 Y123.668 E3.6642
G1 X111.771 Y122.677 E3.7535
G1 X109.142 Y121.918 E3.8404
G1 X106.519 Y121.386 E3.9254
G1 X103.829 Y121.072 E4.0115
G1 X101.243 Y120.987 E4.0936
G1 X98.707 Y121.111 E4.1743
G1 X96.102 Y121.452 E4.2577
G1 X93.500 Y122.011 E4.3422
G1 X90.899 Y122.791 E4.4285
G1 X88.287 Y123.802 E4.5174
G1 X85.692 Y125.037 E4.6087
G1 X83.145 Y126.480 E4.7017
G1 X81.288 Y127.680 E4.7719
G1 X81.057 Y127.811 E4.7803
G1 X80.838 Y127.890 E4.7877
G1 X80.608 Y127.933 E4.7951
G1 X80.382 Y127.936 E4.8023
G1 X80.145 Y127.900 E4.8099
G1 X79.929 Y127.829 E4.8171
G1 X79.721 Y127.720 E4.8246
G1 X79.536 Y127.578 E4.8320
G1 X79.376 Y127.408 E4.8394
G1 X79.247 Y127.213 E4.8468
G1 X79.152 Y127.000 E4.8543
G1 X79.094 Y126.774 E4.8617
G1 X79.072 Y126.516 E4.8699
G1 X79.072 Y73.511 E6.5533
G1 X79.094 Y73.254 E6.5615
G1 X79.151 Y73.028 E6.5689
G1 X79.246 Y72.815 E6.5762
G1 X79.374 Y72.621 E6.5836
; outer perimeter
G1 X79.059 Y72.373 F6600
G92 E0
G1 X79.264 Y72.153 E0.0095 F750
G1 X79.502 Y71.971 E0.0190
G1 X79.767 Y71.831 E0.0286
G1 X80.052 Y71.737 E0.0381
G1 X80.348 Y71.691 E0.0476
G1 X80.648 Y71.696 E0.0571
G1 X80.943 Y71.750 E0.0667
G1 X81.225 Y71.852 E0.0762
G1 X81.489 Y72.001 E0.0858
G1 X84.072 Y73.637 E0.1829
G1 X86.676 Y75.041 E0.2769
G1 X89.272 Y76.202 E0.3672
G1 X91.859 Y77.131 E0.4545
G1 X94.439 Y77.833 E0.5394
G1 X97.025 Y78.317 E0.6230
G1 X99.583 Y78.582 E0.7047
G1 X101.941 Y78.638 E0.7795
G1 X104.531 Y78.494 E0.8619
G1 X107.075 Y78.140 E0.9435
G1 X109.639 Y77.570 E1.0269
G1 X112.112 Y76.811 E1.1091
G1 X114.677 Y75.807 E1.1965
G1 X117.224 Y74.581 E1.2863
G1 X119.764 Y73.125 E1.3793
G1 X121.446 Y72.027 E1.4431
G1 X121.716 Y71.873 E1.4530
G1 X121.998 Y71.770 E1.4625
G1 X122.293 Y71.716 E1.4720
G1 X122.586 Y71.710 E1.4813
G1 X122.890 Y71.756 E1.4911
G1 X123.170 Y71.848 E1.5005
G1 X123.437 Y71.988 E1.5100
G1 X123.677 Y72.170 E1.5196
G1 X123.882 Y72.389 E1.5291
G1 X124.049 Y72.640 E1.5387
G1 X124.171 Y72.915 E1.5483
G1 X124.246 Y73.206 E1.5578
G1 X124.272 Y73.514 E1.5676
G1 X124.272 Y115.714 E2.9078
G1 X124.328 Y115.714 E2.9096
G1 X124.328 Y130.153 E3.3682
G1 X122.054 Y128.424 E3.4589
G1 X119.457 Y126.714 E3.5576
G1 X116.854 Y125.254 E3.6524
G1 X114.249 Y124.037 E3.7437
G1 X111.645 Y123.057 E3.8321
G1 X109.046 Y122.307 E3.9180
G1 X106.455 Y121.782 E4.0020
G1 X103.799 Y121.471 E4.0869
G1 X101.246 Y121.387 E4.1680
G1 X98.742 Y121.510 E4.2476
G1 X96.170 Y121.846 E4.3300
G1 X93.599 Y122.399 E4.4135
G1 X91.029 Y123.170 E4.4988
G1 X88.446 Y124.169 E4.5867
G1 X85.877 Y125.392 E4.6771
G1 X83.352 Y126.822 E4.7692
G1 X81.495 Y128.023 E4.8395
G1 X81.225 Y128.176 E4.8493
G1 X80.943 Y128.278 E4.8588
G1 X80.648 Y128.332 E4.8684
G1 X80.355 Y128.336 E4.8777
G1 X80.051 Y128.291 E4.8874
G1 X79.772 Y128.198 E4.8968
G1 X79.506 Y128.058 E4.9063
G1 X79.267 Y127.876 E4.9159
G1 X79.061 Y127.657 E4.9254
G1 X78.895 Y127.407 E4.9350
G1 X78.773 Y127.132 E4.9445
G1 X78.698 Y126.841 E4.9540
G1 X78.672 Y126.533 E4.9639
G1 X78.672 Y73.495 E6.6483
G1 X78.698 Y73.187 E6.6581
G1 X78.772 Y72.897 E6.6676
G1 X78.894 Y72.623 E6.6771
G1 X79.059 Y72.373 E6.6867
; inner perimeter
G1 X89.692 Y98.250 F6600
G92 E0
G1 X89.408 Y98.534 E0.0127 F1125
G1 X89.178 Y98.863 E0.0255
G1 X89.009 Y99.226 E0.0382
G1 X88.905 Y99.614 E0.0510
G1 X88.870 Y100.014 E0.0637
G1 X88.905 Y100.413 E0.0765
G1 X89.009 Y100.801 E0.0892
G1 X89.178 Y101.165 E0.1020
G1 X89.409 Y101.494 E0.1147
G1 X89.692 Y101.777 E0.1275
G1 X90.021 Y102.008 E0.1402
G1 X90.385 Y102.177 E0.1529
G1 X90.772 Y102.281 E0.1657
G1 X91.172 Y102.316 E0.1784
G1 X91.572 Y102.281 E0.1912
G1 X91.960 Y102.177 E0.2039
G1 X92.323 Y102.008 E0.2167
G1 X92.652 Y101.777 E0.2294
G1 X92.936 Y101.494 E0.2422
G1 X93.166 Y101.165 E0.2549
G1 X93.336 Y100.801 E0.2677
G1 X93.439 Y100.414 E0.2804
G1 X93.474 Y100.014 E0.2931
G1 X93.439 Y99.614 E0.3059
G1 X93.336 Y99.226 E0.3186
G1 X93.166 Y98.863 E0.3314
G1 X92.936 Y98.534 E0.3441
G1 X92.652 Y98.250 E0.3569
G1 X92.323 Y98.020 E0.3696
G1 X91.960 Y97.850 E0.3824
G1 X91.572 Y97.746 E0.3951
G1 X91.172 Y97.711 E0.4079
G1 X90.772 Y97.746 E0.4206
G1 X90.385 Y97.850 E0.4333
G1 X90.021 Y98.020 E0.4461
G1 X89.692 Y98.250 E0.4588
; outer perimeter
G1 X89.950 Y98.558 F6600
G92 E0
G1 X89.716 Y98.792 E0.0105 F750
G1 X89.526 Y99.063 E0.0210
G1 X89.386 Y99.364 E0.0316
G1 X89.300 Y99.684 E0.0421
G1 X89.271 Y100.014 E0.0526
G1 X89.300 Y100.344 E0.0631
G1 X89.386 Y100.664 E0.0737
G1 X89.526 Y100.964 E0.0842
G1 X89.716 Y101.236 E0.0947
G1 X89.950 Y101.470 E0.1052
G1 X90.222 Y101.660 E0.1157
G1 X90.522 Y101.800 E0.1263
G1 X90.842 Y101.886 E0.1368
G1 X91.172 Y101.914 E0.1473
G1 X91.502 Y101.886 E0.1578
G1 X91.822 Y101.800 E0.1684
G1 X92.123 Y101.660 E0.1789
G1 X92.394 Y101.470 E0.1894
G1 X92.628 Y101.236 E0.1999
G1 X92.818 Y100.964 E0.2104
G1 X92.958 Y100.664 E0.2210
G1 X93.044 Y100.344 E0.2315
G1 X93.073 Y100.014 E0.2420
G1 X93.044 Y99.684 E0.2525
G1 X92.958 Y99.364 E0.2631
G1 X92.818 Y99.063 E0.2736
G1 X92.628 Y98.792 E0.2841
G1 X92.394 Y98.558 E0.2946
G1 X92.123 Y98.368 E0.3052
G1 X91.822 Y98.228 E0.3157
G1 X91.502 Y98.142 E0.3262
G1 X91.172 Y98.113 E0.3367
G1 X90.842 Y98.142 E0.3472
G1 X90.522 Y98.228 E0.3578
G1 X90.222 Y98.368 E0.3683
G1 X89.950 Y98.558 E0.3788
; inner perimeter
G1 X85.041 Y107.095 F6600
G92 E0
G1 X84.597 Y107.539 E0.0199 F1125
G1 X84.237 Y108.054 E0.0399
G1 X83.972 Y108.623 E0.0598
G1 X83.809 Y109.229 E0.0798
G1 X83.754 Y109.855 E0.0997
G1 X83.809 Y110.480 E0.1197
G1 X83.972 Y111.087 E0.1396
G1 X84.237 Y111.656 E0.1595
G1 X84.597 Y112.170 E0.1795
G1 X85.041 Y112.614 E0.1994
G1 X85.555 Y112.974 E0.2194
G1 X86.124 Y113.240 E0.2393
G1 X86.731 Y113.402 E0.2592
G1 X87.357 Y113.457 E0.2792
G1 X87.982 Y113.402 E0.2991
G1 X88.589 Y113.240 E0.3191
G1 X89.158 Y112.974 E0.3390
G1 X89.672 Y112.614 E0.3590
G1 X90.116 Y112.170 E0.3789
G1 X90.476 Y111.656 E0.3988
G1 X90.742 Y111.087 E0.4188
G1 X90.904 Y110.480 E0.4387
G1 X90.959 Y109.855 E0.4587
G1 X90.904 Y109.229 E0.4786
G1 X90.742 Y108.623 E0.4985
G1 X90.476 Y108.054 E0.5185
G1 X90.116 Y107.539 E0.5384
G1 X89.672 Y107.095 E0.5584
G1 X89.158 Y106.735 E0.5783
G1 X88.589 Y106.470 E0.5983
G1 X87.982 Y106.307 E0.6182
G1 X87.357 Y106.252 E0.6381
G1 X86.731 Y106.307 E0.6581
G1 X86.124 Y106.470 E0.6780
G1 X85.555 Y106.735 E0.6980
G1 X85.041 Y107.095 E0.7179
; outer perimeter
G1 X85.299 Y107.403 F6600
G92 E0
G1 X84.905 Y107.797 E0.0177 F750
G1 X84.585 Y108.254 E0.0354
G1 X84.349 Y108.760 E0.0532
G1 X84.204 Y109.299 E0.0709
G1 X84.156 Y109.855 E0.0886
G1 X84.204 Y110.411 E0.1063
G1 X84.349 Y110.950 E0.1240
G1 X84.585 Y111.455 E0.1418
G1 X84.905 Y111.912 E0.1595
G1 X85.299 Y112.307 E0.1772
G1 X85.756 Y112.627 E0.1949
G1 X86.262 Y112.863 E0.2126
G1 X86.801 Y113.007 E0.2303
G1 X87.357 Y113.056 E0.2481
G1 X87.912 Y113.007 E0.2658
G1 X88.451 Y112.863 E0.2835
G1 X88.957 Y112.627 E0.3012
G1 X89.414 Y112.307 E0.3189
G1 X89.808 Y111.912 E0.3367
G1 X90.128 Y111.455 E0.3544
G1 X90.364 Y110.950 E0.3721
G1 X90.509 Y110.411 E0.3898
G1 X90.557 Y109.855 E0.4075
G1 X90.509 Y109.299 E0.4253
G1 X90.364 Y108.760 E0.4430
G1 X90.128 Y108.254 E0.4607
G1 X89.808 Y107.797 E0.4784
G1 X89.414 Y107.403 E0.4961
G1 X88.957 Y107.083 E0.5139
G1 X88.451 Y106.847 E0.5316
G1 X87.912 Y106.703 E0.5493
G1 X87.357 Y106.654 E0.5670
G1 X86.801 Y106.703 E0.5847
G1 X86.262 Y106.847 E0.6025
G1 X85.756 Y107.083 E0.6202
G1 X85.299 Y107.403 E0.6379
; inner perimeter
G1 X99.325 Y98.212 F6600
G92 E0
G1 X99.045 Y98.613 E0.0155 F1125
G1 X98.839 Y99.055 E0.0310
G1 X98.712 Y99.527 E0.0465
G1 X98.670 Y100.014 E0.0621
G1 X98.712 Y100.500 E0.0776
G1 X98.839 Y100.972 E0.0931
G1 X99.045 Y101.415 E0.1086
G1 X99.325 Y101.815 E0.1241
G1 X99.671 Y102.160 E0.1396
G1 X100.071 Y102.441 E0.1551
G1 X100.514 Y102.647 E0.1706
G1 X100.986 Y102.773 E0.1862
G1 X101.472 Y102.816 E0.2017
G1 X101.959 Y102.773 E0.2172
G1 X102.431 Y102.647 E0.2327
G1 X102.873 Y102.441 E0.2482
G1 X103.273 Y102.160 E0.2637
G1 X103.619 Y101.815 E0.2792
G1 X103.899 Y101.415 E0.2948
G1 X104.105 Y100.972 E0.3103
G1 X104.232 Y100.500 E0.3258
G1 X104.274 Y100.014 E0.3413
G1 X104.232 Y99.527 E0.3568
G1 X104.105 Y99.055 E0.3723
G1 X103.899 Y98.613 E0.3878
G1 X103.619 Y98.212 E0.4033
G1 X103.273 Y97.867 E0.4189
G1 X102.873 Y97.587 E0.4344
G1 X102.431 Y97.380 E0.4499
G1 X101.959 Y97.254 E0.4654
G1 X101.472 Y97.211 E0.4809
G1 X100.986 Y97.254 E0.4964
G1 X100.514 Y97.380 E0.5119
G1 X100.071 Y97.587 E0.5275
G1 X99.671 Y97.867 E0.5430
G1 X99.325 Y98.212 E0.5585
; outer perimeter
G1 X99.633 Y98.471 F6600
G92 E0
G1 X99.393 Y98.813 E0.0133 F750
G1 X99.216 Y99.193 E0.0266
G1 X99.108 Y99.597 E0.0399
G1 X99.071 Y100.014 E0.0532
G1 X99.108 Y100.431 E0.0665
G1 X99.216 Y100.835 E0.0797
G1 X99.393 Y101.214 E0.0930
G1 X99.633 Y101.557 E0.1063
G1 X99.929 Y101.853 E0.1196
G1 X100.272 Y102.093 E0.1329
G1 X100.651 Y102.270 E0.1462
G1 X101.055 Y102.378 E0.1595
G1 X101.472 Y102.414 E0.1728
G1 X101.889 Y102.378 E0.1861
G1 X102.293 Y102.270 E0.1994
G1 X102.673 Y102.093 E0.2126
G1 X103.015 Y101.853 E0.2259
G1 X103.311 Y101.557 E0.2392
G1 X103.551 Y101.214 E0.2525
G1 X103.728 Y100.835 E0.2658
G1 X103.836 Y100.431 E0.2791
G1 X103.873 Y100.014 E0.2924
G1 X103.836 Y99.597 E0.3057
G1 X103.728 Y99.193 E0.3190
G1 X103.551 Y98.813 E0.3323
G1 X103.311 Y98.471 E0.3456
G1 X103.015 Y98.175 E0.3588
G1 X102.673 Y97.935 E0.3721
G1 X102.293 Y97.758 E0.3854
G1 X101.889 Y97.649 E0.3987
G1 X101.472 Y97.613 E0.4120
G1 X101.055 Y97.649 E0.4253
G1 X100.651 Y97.758 E0.4386
G1 X100.272 Y97.935 E0.4519
G1 X99.929 Y98.175 E0.4652
G1 X99.633 Y98.471 E0.4785
G92 E0
