; G-Code generated by Simplify3D(R) Version 3.0.0
; Feb 16, 2016 at 2:21:27 AM
; Settings Summary
;   processName,Process1
;   applyToModels,incline
;   profileName,PLA 195 T20 0.20L 50mm/s (modified)
;   profileVersion,2016-01-05 00:02:20
;   baseProfile,Duplicator_I3_60micron (modified)
;   printMaterial,PLA
;   printQuality,Medium
;   printExtruders,
;   extruderName,Extruder 1
;   extruderToolheadNumber,0
;   extruderDiameter,0.4
;   extruderAutoWidth,0
;   extruderWidth,0.4
;   extrusionMultiplier,0.8
;   extruderUseRetract,1
;   extruderRetractionDistance,1.9
;   extruderExtraRestartDistance,0
;   extruderRetractionZLift,0
;   extruderRetractionSpeed,2100
;   extruderUseCoasting,0
;   extruderCoastingDistance,0.2
;   extruderUseWipe,0
;   extruderWipeDistance,5
;   primaryExtruder,0
;   layerHeight,0.2
;   topSolidLayers,2
;   bottomSolidLayers,2
;   perimeterOutlines,2
;   printPerimetersInsideOut,1
;   startPointOption,2
;   startPointOriginX,0
;   startPointOriginY,0
;   startPointOriginZ,300
;   sequentialIslands,0
;   spiralVaseMode,0
;   firstLayerHeightPercentage,100
;   firstLayerWidthPercentage,100
;   firstLayerUnderspeed,0.5
;   useRaft,0
;   raftExtruder,0
;   raftLayers,1
;   raftOffset,3
;   raftSeparationDistance,0.14
;   raftInfill,85
;   disableRaftBaseLayers,1
;   useSkirt,0
;   skirtExtruder,0
;   skirtLayers,1
;   skirtOutlines,3
;   skirtOffset,3
;   usePrimePillar,0
;   primePillarExtruder,999
;   primePillarWidth,4
;   primePillarLocation,7
;   primePillarSpeedMultiplier,1
;   useOozeShield,0
;   oozeShieldExtruder,999
;   oozeShieldOffset,5
;   oozeShieldOutlines,1
;   oozeShieldSidewallShape,0
;   oozeShieldSidewallAngle,30
;   oozeShieldSpeedMultiplier,1
;   infillExtruder,0
;   internalInfillPattern,Triangular
;   externalInfillPattern,Rectilinear
;   infillPercentage,25
;   outlineOverlapPercentage,20
;   infillExtrusionWidthPercentage,105
;   minInfillLength,5
;   infillLayerInterval,1
;   infillAngles,0,60,-60
;   overlapInfillAngles,1
;   generateSupport,1
;   supportExtruder,0
;   supportInfillPercentage,40
;   supportExtraInflation,0
;   denseSupportLayers,2
;   denseSupportInfillPercentage,70
;   supportLayerInterval,1
;   supportHorizontalPartOffset,0.1
;   supportUpperSeparationLayers,1
;   supportLowerSeparationLayers,1
;   supportType,0
;   supportGridSpacing,4
;   maxOverhangAngle,20
;   supportAngles,0
;   temperatureName,Extruder 1 Temperature,Heated Bed
;   temperatureNumber,0,0
;   temperatureSetpointCount,1,1
;   temperatureSetpointLayers,1,1
;   temperatureSetpointTemperatures,195,50
;   temperatureStabilizeAtStartup,1,1
;   temperatureHeatedBed,0,1
;   temperatureRelayBetweenLayers,0,0
;   temperatureRelayBetweenLoops,0,0
;   fanLayers,1,2
;   fanSpeeds,0,100
;   blipFanToFullPower,0
;   adjustSpeedForCooling,0
;   minSpeedLayerTime,5
;   minCoolingSpeedSlowdown,20
;   increaseFanForCooling,0
;   minFanLayerTime,45
;   maxCoolingFanSpeed,100
;   increaseFanForBridging,0
;   bridgingFanSpeed,100
;   use5D,1
;   relativeEdistances,0
;   allowEaxisZeroing,1
;   independentExtruderAxes,0
;   includeM10123,0
;   stickySupport,1
;   applyToolheadOffsets,0
;   gcodeXoffset,2
;   gcodeYoffset,1
;   gcodeZoffset,0
;   overrideMachineDefinition,1
;   machineTypeOverride,0
;   strokeXoverride,199
;   strokeYoverride,200
;   strokeZoverride,183
;   originOffsetXoverride,0
;   originOffsetYoverride,0
;   originOffsetZoverride,0
;   homeXdirOverride,-1
;   homeYdirOverride,-1
;   homeZdirOverride,-1
;   flipXoverride,1
;   flipYoverride,-1
;   flipZoverride,1
;   toolheadOffsets,0,0|0,0|0,0|0,0|0,0|0,0
;   overrideFirmwareConfiguration,1
;   firmwareTypeOverride,RepRap (Marlin/Repetier/Sprinter)
;   GPXconfigOverride,r2
;   baudRateOverride,250000
;   overridePrinterModels,0
;   printerModelsOverride
;   startingGcode,G28 ; home all axes
;   layerChangeGcode,
;   retractionGcode,
;   toolChangeGcode,
;   endingGcode,G91,G1 Z10,G92,G1 X10,M104 S0 ; turn off extruder,M140 S0 ; turn off bed,M84 ; disable motors,M106 S0
;   createX3G,0
;   celebration,0
;   celebrationSong,Random Song
;   createMB5G,0
;   postProcessing,
;   defaultSpeed,3000
;   outlineUnderspeed,0.5
;   solidInfillUnderspeed,0.8
;   supportUnderspeed,0.8
;   rapidXYspeed,6600
;   rapidZspeed,600
;   minBridgingArea,50
;   bridgingExtraInflation,0
;   bridgingExtrusionMultiplier,1
;   bridgingSpeedMultiplier,1
;   filamentDiameter,1.68
;   filamentPricePerKg,30
;   filamentDensity,1.25
;   useMinPrintHeight,0
;   minPrintHeight,0
;   useMaxPrintHeight,0
;   maxPrintHeight,0
;   useDiaphragm,0
;   diaphragmLayerInterval,20
;   robustSlicing,1
;   mergeAllIntoSolid,0
;   onlyRetractWhenCrossingOutline,1
;   retractBetweenLayers,1
;   useRetractionMinTravel,0
;   retractionMinTravel,3
;   retractWhileWiping,0
;   onlyWipeOutlines,1
;   avoidCrossingOutline,0
;   maxMovementDetourFactor,3
;   toolChangeRetractionDistance,12
;   toolChangeExtraRestartDistance,-0.5
;   toolChangeRetractionSpeed,600
;   allowThinWallGapFill,1
;   thinWallAllowedOverlapPercentage,10
;   horizontalSizeCompensation,0
G90
M82
M106 S0
M140 S50
M190 S50
M104 S195 T0
M109 S195 T0
G28 ; home all axes
G92 E0
G1 E-1.9000 F2100
G1 Z0.200 F600
; layer 1, Z = 0.2
T0
; tool H0.200 W0.400
; inner perimeter
G1 X88.494 Y88.674 F6600
G1 E0.0000 F630
G92 E0
G1 X117.935 Y90.495 E0.8516 F1125
G1 X116.515 Y113.465 E1.5161
G1 X87.074 Y111.644 E2.3677
G1 X88.494 Y88.674 E3.0322
; outer perimeter
G1 X88.200 Y88.434 F6600
G92 E0
G1 X88.338 Y88.329 E0.0050 F750
G1 X88.568 Y88.278 E0.0118
G1 X117.919 Y90.093 E0.8608
G1 X118.170 Y90.191 E0.8686
G1 X118.257 Y90.285 E0.8723
G1 X118.332 Y90.560 E0.8805
G1 X116.916 Y113.449 E1.5427
G1 X116.808 Y113.713 E1.5509
G1 X116.710 Y113.795 E1.5546
G1 X116.449 Y113.862 E1.5624
G1 X87.098 Y112.046 E2.4114
G1 X86.876 Y111.967 E2.4182
G1 X86.754 Y111.848 E2.4231
G1 X86.677 Y111.578 E2.4312
G1 X88.093 Y88.679 E3.0936
G1 X88.102 Y88.650 E3.0945
G1 X88.200 Y88.434 E3.1014
; inner perimeter
G1 X98.883 Y97.435 F6600
G92 E0
G1 X98.474 Y97.943 E0.0188 F1125
G1 X98.131 Y98.497 E0.0376
G1 X97.858 Y99.089 E0.0565
G1 X97.661 Y99.710 E0.0753
G1 X97.541 Y100.351 E0.0941
G1 X97.501 Y101.001 E0.1129
G1 X97.541 Y101.652 E0.1317
G1 X97.660 Y102.292 E0.1505
G1 X97.858 Y102.914 E0.1694
G1 X98.130 Y103.506 E0.1882
G1 X98.473 Y104.060 E0.2070
G1 X98.882 Y104.568 E0.2258
G1 X99.350 Y105.022 E0.2446
G1 X99.870 Y105.415 E0.2635
G1 X100.434 Y105.741 E0.2823
G1 X101.034 Y105.995 E0.3011
G1 X101.661 Y106.173 E0.3199
G1 X102.305 Y106.273 E0.3387
G1 X102.957 Y106.294 E0.3576
G1 X103.606 Y106.234 E0.3764
G1 X104.243 Y106.094 E0.3952
G1 X104.857 Y105.878 E0.4140
G1 X105.441 Y105.587 E0.4328
G1 X105.984 Y105.227 E0.4517
G1 X106.479 Y104.803 E0.4705
G1 X106.918 Y104.322 E0.4893
G1 X107.295 Y103.790 E0.5081
G1 X107.604 Y103.216 E0.5269
G1 X107.839 Y102.608 E0.5457
G1 X107.998 Y101.976 E0.5646
G1 X108.079 Y101.329 E0.5834
G1 X108.079 Y100.677 E0.6022
G1 X107.999 Y100.030 E0.6210
G1 X107.840 Y99.398 E0.6398
G1 X107.604 Y98.790 E0.6587
G1 X107.296 Y98.216 E0.6775
G1 X106.920 Y97.684 E0.6963
G1 X106.481 Y97.202 E0.7151
G1 X105.986 Y96.778 E0.7339
G1 X105.442 Y96.418 E0.7528
G1 X104.859 Y96.127 E0.7716
G1 X104.244 Y95.910 E0.7904
G1 X103.607 Y95.771 E0.8092
G1 X102.958 Y95.711 E0.8280
G1 X102.307 Y95.730 E0.8468
G1 X101.663 Y95.830 E0.8657
G1 X101.036 Y96.009 E0.8845
G1 X100.436 Y96.263 E0.9033
G1 X99.871 Y96.588 E0.9221
G1 X99.351 Y96.981 E0.9409
G1 X98.883 Y97.435 E0.9598
; outer perimeter
G1 X99.179 Y97.705 F6600
G92 E0
G1 X98.801 Y98.174 E0.0174 F750
G1 X98.484 Y98.686 E0.0348
G1 X98.232 Y99.234 E0.0522
G1 X98.049 Y99.808 E0.0696
G1 X97.938 Y100.400 E0.0870
G1 X97.901 Y101.001 E0.1044
G1 X97.938 Y101.603 E0.1218
G1 X98.049 Y102.195 E0.1392
G1 X98.231 Y102.769 E0.1565
G1 X98.483 Y103.316 E0.1739
G1 X98.800 Y103.829 E0.1913
G1 X99.178 Y104.298 E0.2087
G1 X99.610 Y104.718 E0.2261
G1 X100.091 Y105.081 E0.2435
G1 X100.613 Y105.382 E0.2609
G1 X101.167 Y105.617 E0.2783
G1 X101.747 Y105.782 E0.2957
G1 X102.342 Y105.874 E0.3131
G1 X102.944 Y105.893 E0.3305
G1 X103.544 Y105.838 E0.3479
G1 X104.133 Y105.709 E0.3653
G1 X104.701 Y105.509 E0.3827
G1 X105.240 Y105.240 E0.4001
G1 X105.743 Y104.907 E0.4175
G1 X106.200 Y104.516 E0.4349
G1 X106.606 Y104.070 E0.4523
G1 X106.954 Y103.579 E0.4696
G1 X107.240 Y103.048 E0.4870
G1 X107.457 Y102.486 E0.5044
G1 X107.604 Y101.902 E0.5218
G1 X107.679 Y101.304 E0.5392
G1 X107.679 Y100.702 E0.5566
G1 X107.605 Y100.104 E0.5740
G1 X107.458 Y99.519 E0.5914
G1 X107.240 Y98.958 E0.6088
G1 X106.955 Y98.427 E0.6262
G1 X106.607 Y97.935 E0.6436
G1 X106.202 Y97.490 E0.6610
G1 X105.744 Y97.098 E0.6784
G1 X105.242 Y96.765 E0.6958
G1 X104.703 Y96.496 E0.7132
G1 X104.134 Y96.296 E0.7306
G1 X103.546 Y96.167 E0.7480
G1 X102.946 Y96.111 E0.7654
G1 X102.344 Y96.130 E0.7827
G1 X101.749 Y96.222 E0.8001
G1 X101.169 Y96.387 E0.8175
G1 X100.614 Y96.621 E0.8349
G1 X100.092 Y96.923 E0.8523
G1 X99.612 Y97.286 E0.8697
G1 X99.179 Y97.705 E0.8871
; solid layer
G1 X100.309 Y95.969 F6600
G92 E0
G1 X106.189 Y90.089 E0.2401 F1200
G1 X106.721 Y90.122 E0.2555
G1 X101.219 Y95.624 E0.4801
G1 X101.594 Y95.517 E0.4914
G1 X101.946 Y95.463 E0.5017
G1 X107.254 Y90.155 E0.7184
G1 X107.787 Y90.188 E0.7338
G1 X102.572 Y95.402 E0.9467
G1 X102.968 Y95.390 E0.9582
G1 X103.135 Y95.406 E0.9630
G1 X108.320 Y90.221 E1.1747
G1 X108.852 Y90.254 E1.1901
G1 X103.652 Y95.454 E1.4024
G1 X103.657 Y95.454 E1.4026
G1 X104.117 Y95.555 E1.4162
G1 X109.385 Y90.286 E1.6313
G1 X109.918 Y90.319 E1.6467
G1 X104.556 Y95.681 E1.8656
G1 X104.974 Y95.829 E1.8784
G1 X110.451 Y90.352 E2.1020
G1 X110.983 Y90.385 E2.1174
G1 X105.353 Y96.016 E2.3473
G1 X105.603 Y96.140 E2.3554
G1 X105.718 Y96.216 E2.3594
G1 X111.516 Y90.418 E2.5961
G1 X112.049 Y90.451 E2.6115
G1 X106.058 Y96.442 E2.8561
G1 X106.179 Y96.522 E2.8603
G1 X106.375 Y96.690 E2.8678
G1 X112.582 Y90.484 E3.1212
G1 X113.114 Y90.517 E3.1366
G1 X106.680 Y96.951 E3.3993
G1 X106.704 Y96.972 E3.4002
G1 X106.952 Y97.245 E3.4109
G1 X113.647 Y90.550 E3.6842
G1 X114.180 Y90.583 E3.6996
G1 X107.215 Y97.548 E3.9840
G1 X107.450 Y97.879 E3.9957
G1 X114.713 Y90.616 E4.2923
G1 X115.245 Y90.649 E4.3077
G1 X107.666 Y98.228 E4.6171
G1 X107.864 Y98.596 E4.6292
G1 X115.778 Y90.682 E4.9523
G1 X116.311 Y90.715 E4.9678
G1 X108.028 Y98.998 E5.3060
G1 X108.145 Y99.301 E5.3153
G1 X108.174 Y99.417 E5.3188
G1 X116.843 Y90.748 E5.6728
G1 X117.376 Y90.781 E5.6882
G1 X108.288 Y99.869 E6.0592
G1 X108.314 Y99.971 E6.0623
G1 X108.362 Y100.361 E6.0736
G1 X117.574 Y91.148 E6.4498
G1 X117.537 Y91.751 E6.4672
G1 X108.399 Y100.890 E6.8403
G1 X108.398 Y101.349 E6.8536
G1 X108.383 Y101.471 E6.8571
G1 X117.500 Y92.354 E7.2294
G1 X117.462 Y92.957 E7.2468
G1 X108.289 Y102.130 E7.6213
G1 X108.145 Y102.705 E7.6384
G1 X108.059 Y102.926 E7.6453
G1 X117.425 Y93.560 E8.0277
G1 X117.388 Y94.163 E8.0452
G1 X107.508 Y104.043 E8.4486
G1 X116.232 Y112.855 F6600
G92 E0
G1 X115.976 Y113.111 E0.0104 F1200
G1 X115.444 Y113.078 E0.0258
G1 X116.269 Y112.252 E0.0596
G1 X116.306 Y111.650 E0.0770
G1 X114.911 Y113.045 E0.1340
G1 X114.378 Y113.012 E0.1494
G1 X116.344 Y111.047 E0.2296
G1 X116.381 Y110.444 E0.2471
G1 X113.845 Y112.979 E0.3506
G1 X113.313 Y112.946 E0.3660
G1 X116.418 Y109.841 E0.4928
G1 X116.456 Y109.238 E0.5103
G1 X112.780 Y112.913 E0.6604
G1 X112.247 Y112.880 E0.6758
G1 X116.493 Y108.635 E0.8491
G1 X116.530 Y108.032 E0.8666
G1 X111.714 Y112.847 E1.0632
G1 X111.182 Y112.814 E1.0786
G1 X116.567 Y107.429 E1.2985
G1 X116.605 Y106.826 E1.3160
G1 X110.649 Y112.782 E1.5591
G1 X110.116 Y112.749 E1.5745
G1 X116.642 Y106.223 E1.8410
G1 X116.679 Y105.620 E1.8584
G1 X109.583 Y112.716 E2.1482
G1 X109.051 Y112.683 E2.1636
G1 X116.717 Y105.017 E2.4766
G1 X116.754 Y104.414 E2.4940
G1 X108.518 Y112.650 E2.8303
G1 X107.985 Y112.617 E2.8457
G1 X116.791 Y103.811 E3.2053
G1 X116.828 Y103.208 E3.2227
G1 X107.452 Y112.584 E3.6055
G1 X106.920 Y112.551 E3.6209
G1 X116.866 Y102.605 E4.0270
G1 X116.903 Y102.002 E4.0445
G1 X106.387 Y112.518 E4.4739
G1 X105.854 Y112.485 E4.4893
G1 X116.940 Y101.399 E4.9419
G1 X116.978 Y100.796 E4.9594
G1 X105.322 Y112.452 E5.4353
G1 X104.789 Y112.419 E5.4507
G1 X117.015 Y100.193 E5.9499
G1 X117.052 Y99.590 E5.9673
G1 X104.256 Y112.386 E6.4898
G1 X103.723 Y112.353 E6.5052
G1 X117.089 Y98.987 E7.0510
G1 X117.127 Y98.384 E7.0684
G1 X103.191 Y112.320 E7.6375
G1 X102.658 Y112.287 E7.6529
G1 X117.164 Y97.781 E8.2452
G1 X117.201 Y97.178 E8.2626
G1 X102.125 Y112.254 E8.8782
G1 X101.592 Y112.221 E8.8936
G1 X117.239 Y96.575 E9.5324
G1 X117.276 Y95.972 E9.5499
G1 X101.060 Y112.188 E10.2120
G1 X100.527 Y112.156 E10.2274
G1 X117.313 Y95.369 E10.9128
G1 X117.351 Y94.766 E10.9303
G1 X99.994 Y112.123 E11.6389
G1 X99.461 Y112.090 E11.6543
G1 X105.853 Y105.698 E11.9153
G1 X105.601 Y105.865 E11.9240
G1 X104.982 Y106.173 E11.9440
G1 X104.720 Y106.265 E11.9520
G1 X98.929 Y112.057 E12.1885
G1 X98.396 Y112.024 E12.2039
G1 X103.929 Y106.490 E12.4298
G1 X103.655 Y106.550 E12.4379
G1 X103.268 Y106.586 E12.4491
G1 X97.863 Y111.991 E12.6698
G1 X97.330 Y111.958 E12.6852
G1 X102.683 Y106.605 E12.9038
G1 X102.276 Y106.593 E12.9155
G1 X102.150 Y106.573 E12.9192
G1 X96.798 Y111.925 E13.1377
G1 X96.265 Y111.892 E13.1532
G1 X101.660 Y106.497 E13.3734
G1 X101.592 Y106.487 E13.3754
G1 X101.213 Y106.378 E13.3868
G1 X95.732 Y111.859 E13.6106
G1 X95.199 Y111.826 E13.6260
G1 X100.788 Y106.238 E13.8542
G1 X100.390 Y106.070 E13.8666
G1 X94.667 Y111.793 E14.1003
G1 X94.134 Y111.760 E14.1157
G1 X100.022 Y105.872 E14.3561
G1 X99.692 Y105.682 E14.3671
G1 X99.666 Y105.662 E14.3681
G1 X93.601 Y111.727 E14.6157
G1 X93.069 Y111.694 E14.6311
G1 X99.344 Y105.419 E14.8873
G1 X99.141 Y105.265 E14.8947
G1 X99.035 Y105.162 E14.8990
G1 X92.536 Y111.661 E15.1643
G1 X92.003 Y111.628 E15.1797
G1 X98.748 Y104.884 E15.4551
G1 X98.645 Y104.784 E15.4593
G1 X98.483 Y104.583 E15.4667
G1 X91.470 Y111.595 E15.7530
G1 X90.938 Y111.562 E15.7684
G1 X98.231 Y104.269 E16.0662
G1 X98.211 Y104.245 E16.0671
G1 X98.012 Y103.923 E16.0781
G1 X90.405 Y111.530 E16.3887
G1 X89.872 Y111.497 E16.4041
G1 X97.805 Y103.564 E16.7280
G1 X97.626 Y103.177 E16.7403
G1 X89.339 Y111.464 E17.0786
G1 X88.807 Y111.431 E17.0940
G1 X97.474 Y102.763 E17.4479
G1 X97.349 Y102.371 E17.4598
G1 X97.342 Y102.330 E17.4610
G1 X88.274 Y111.398 E17.8313
G1 X87.741 Y111.365 E17.8467
G1 X97.253 Y101.853 E18.2350
G1 X97.222 Y101.691 E18.2398
G1 X97.201 Y101.340 E18.2500
G1 X87.427 Y111.113 E18.6490
G1 X87.464 Y110.510 E18.6665
G1 X97.193 Y100.781 E19.0637
G1 X97.223 Y100.311 E19.0773
G1 X97.251 Y100.158 E19.0818
G1 X87.502 Y109.907 E19.4799
G1 X87.539 Y109.304 E19.4974
G1 X97.414 Y99.429 E19.9006
G1 X97.559 Y98.973 E19.9144
G1 X97.777 Y98.501 E19.9294
G1 X87.576 Y108.701 E20.3459
G1 X87.613 Y108.098 E20.3633
G1 X105.656 Y90.056 E21.1000
G1 X105.123 Y90.023 E21.1154
G1 X87.651 Y107.495 E21.8289
G1 X87.688 Y106.892 E21.8463
G1 X104.591 Y89.990 E22.5364
G1 X104.058 Y89.957 E22.5519
G1 X87.725 Y106.289 E23.2187
G1 X87.763 Y105.686 E23.2362
G1 X103.525 Y89.924 E23.8798
G1 X102.992 Y89.891 E23.8952
G1 X87.800 Y105.084 E24.5155
G1 X87.837 Y104.481 E24.5329
G1 X102.460 Y89.858 E25.1300
G1 X101.927 Y89.825 E25.1454
G1 X87.874 Y103.878 E25.7191
G1 X87.912 Y103.275 E25.7366
G1 X101.394 Y89.792 E26.2871
G1 X100.861 Y89.759 E26.3025
G1 X87.949 Y102.672 E26.8297
G1 X87.986 Y102.069 E26.8471
G1 X100.329 Y89.726 E27.3511
G1 X99.796 Y89.693 E27.3665
G1 X88.024 Y101.466 E27.8472
G1 X88.061 Y100.863 E27.8646
G1 X99.263 Y89.660 E28.3220
G1 X98.730 Y89.627 E28.3374
G1 X88.098 Y100.260 E28.7715
G1 X88.136 Y99.657 E28.7890
G1 X98.198 Y89.595 E29.1998
G1 X97.665 Y89.562 E29.2152
G1 X88.173 Y99.054 E29.6028
G1 X88.210 Y98.451 E29.6202
G1 X97.132 Y89.529 E29.9845
G1 X96.599 Y89.496 E30.0000
G1 X88.247 Y97.848 E30.3410
G1 X88.285 Y97.245 E30.3584
G1 X96.067 Y89.463 E30.6762
G1 X95.534 Y89.430 E30.6916
G1 X88.322 Y96.642 E30.9860
G1 X88.359 Y96.039 E31.0035
G1 X95.001 Y89.397 E31.2747
G1 X94.469 Y89.364 E31.2901
G1 X88.397 Y95.436 E31.5380
G1 X88.434 Y94.833 E31.5555
G1 X93.936 Y89.331 E31.7801
G1 X93.403 Y89.298 E31.7955
