; G-Code generated by Simplify3D(R) Version 3.0.0
; Feb 13, 2016 at 2:25:24 AM
; Settings Summary
;   processName,Process1
;   applyToModels,v3
;   profileName,PLA 195 T20 0.20L 50mm/s (modified)
;   profileVersion,2016-01-05 00:02:20
;   baseProfile,Duplicator_I3_60micron (modified)
;   printMaterial,PLA
;   printQuality,Medium
;   printExtruders,
;   extruderName,Extruder 1
;   extruderToolheadNumber,0
;   extruderDiameter,0.4
;   extruderAutoWidth,0
;   extruderWidth,0.4
;   extrusionMultiplier,0.8
;   extruderUseRetract,1
;   extruderRetractionDistance,1.9
;   extruderExtraRestartDistance,0
;   extruderRetractionZLift,0
;   extruderRetractionSpeed,2100
;   extruderUseCoasting,0
;   extruderCoastingDistance,0.2
;   extruderUseWipe,0
;   extruderWipeDistance,5
;   primaryExtruder,0
;   layerHeight,0.2
;   topSolidLayers,2
;   bottomSolidLayers,2
;   perimeterOutlines,2
;   printPerimetersInsideOut,1
;   startPointOption,2
;   startPointOriginX,0
;   startPointOriginY,0
;   startPointOriginZ,300
;   sequentialIslands,0
;   spiralVaseMode,0
;   firstLayerHeightPercentage,100
;   firstLayerWidthPercentage,100
;   firstLayerUnderspeed,0.5
;   useRaft,0
;   raftExtruder,0
;   raftLayers,1
;   raftOffset,3
;   raftSeparationDistance,0.14
;   raftInfill,85
;   disableRaftBaseLayers,1
;   useSkirt,0
;   skirtExtruder,0
;   skirtLayers,1
;   skirtOutlines,3
;   skirtOffset,3
;   usePrimePillar,0
;   primePillarExtruder,999
;   primePillarWidth,4
;   primePillarLocation,7
;   primePillarSpeedMultiplier,1
;   useOozeShield,0
;   oozeShieldExtruder,999
;   oozeShieldOffset,5
;   oozeShieldOutlines,1
;   oozeShieldSidewallShape,0
;   oozeShieldSidewallAngle,30
;   oozeShieldSpeedMultiplier,1
;   infillExtruder,0
;   internalInfillPattern,Triangular
;   externalInfillPattern,Rectilinear
;   infillPercentage,25
;   outlineOverlapPercentage,20
;   infillExtrusionWidthPercentage,105
;   minInfillLength,5
;   infillLayerInterval,1
;   infillAngles,0,60,-60
;   overlapInfillAngles,1
;   generateSupport,1
;   supportExtruder,0
;   supportInfillPercentage,40
;   supportExtraInflation,0
;   denseSupportLayers,2
;   denseSupportInfillPercentage,70
;   supportLayerInterval,1
;   supportHorizontalPartOffset,0.1
;   supportUpperSeparationLayers,1
;   supportLowerSeparationLayers,1
;   supportType,0
;   supportGridSpacing,4
;   maxOverhangAngle,20
;   supportAngles,0
;   temperatureName,Extruder 1 Temperature,Heated Bed
;   temperatureNumber,0,0
;   temperatureSetpointCount,1,1
;   temperatureSetpointLayers,1,1
;   temperatureSetpointTemperatures,195,50
;   temperatureStabilizeAtStartup,1,1
;   temperatureHeatedBed,0,1
;   temperatureRelayBetweenLayers,0,0
;   temperatureRelayBetweenLoops,0,0
;   fanLayers,1,2
;   fanSpeeds,0,100
;   blipFanToFullPower,0
;   adjustSpeedForCooling,0
;   minSpeedLayerTime,5
;   minCoolingSpeedSlowdown,20
;   increaseFanForCooling,0
;   minFanLayerTime,45
;   maxCoolingFanSpeed,100
;   increaseFanForBridging,0
;   bridgingFanSpeed,100
;   use5D,1
;   relativeEdistances,0
;   allowEaxisZeroing,1
;   independentExtruderAxes,0
;   includeM10123,0
;   stickySupport,1
;   applyToolheadOffsets,0
;   gcodeXoffset,2
;   gcodeYoffset,1
;   gcodeZoffset,0
;   overrideMachineDefinition,1
;   machineTypeOverride,0
;   strokeXoverride,199
;   strokeYoverride,200
;   strokeZoverride,183
;   originOffsetXoverride,0
;   originOffsetYoverride,0
;   originOffsetZoverride,0
;   homeXdirOverride,-1
;   homeYdirOverride,-1
;   homeZdirOverride,-1
;   flipXoverride,1
;   flipYoverride,-1
;   flipZoverride,1
;   toolheadOffsets,0,0|0,0|0,0|0,0|0,0|0,0
;   overrideFirmwareConfiguration,1
;   firmwareTypeOverride,RepRap (Marlin/Repetier/Sprinter)
;   GPXconfigOverride,r2
;   baudRateOverride,250000
;   overridePrinterModels,0
;   printerModelsOverride
;   startingGcode,G28 ; home all axes
;   layerChangeGcode,
;   retractionGcode,
;   toolChangeGcode,
;   endingGcode,G91,G1 Z10,G92,G1 X10,M104 S0 ; turn off extruder,M140 S0 ; turn off bed,M84 ; disable motors,M106 S0
;   createX3G,0
;   celebration,0
;   celebrationSong,Random Song
;   createMB5G,0
;   postProcessing,
;   defaultSpeed,3000
;   outlineUnderspeed,0.5
;   solidInfillUnderspeed,0.8
;   supportUnderspeed,0.8
;   rapidXYspeed,6600
;   rapidZspeed,600
;   minBridgingArea,50
;   bridgingExtraInflation,0
;   bridgingExtrusionMultiplier,1
;   bridgingSpeedMultiplier,1
;   filamentDiameter,1.68
;   filamentPricePerKg,30
;   filamentDensity,1.25
;   useMinPrintHeight,0
;   minPrintHeight,0
;   useMaxPrintHeight,0
;   maxPrintHeight,0
;   useDiaphragm,0
;   diaphragmLayerInterval,20
;   robustSlicing,1
;   mergeAllIntoSolid,0
;   onlyRetractWhenCrossingOutline,1
;   retractBetweenLayers,1
;   useRetractionMinTravel,0
;   retractionMinTravel,3
;   retractWhileWiping,0
;   onlyWipeOutlines,1
;   avoidCrossingOutline,0
;   maxMovementDetourFactor,3
;   toolChangeRetractionDistance,12
;   toolChangeExtraRestartDistance,-0.5
;   toolChangeRetractionSpeed,600
;   allowThinWallGapFill,1
;   thinWallAllowedOverlapPercentage,10
;   horizontalSizeCompensation,0
G90
M82
M106 S0
M140 S50
M190 S50
M104 S195 T0
M109 S195 T0
G28 ; home all axes
G92 E0
G1 E-1.9000 F2100
G1 Z0.200 F600
; layer 1, Z = 0.2
T0
; tool H0.200 W0.400
; inner perimeter
G1 X82.173 Y73.858 F6600
G1 E0.0000 F630
G92 E0
G1 X82.578 Y73.517 E0.0153 F1125
G1 X83.033 Y73.241 E0.0306
G1 X83.531 Y73.038 E0.0462
G1 X84.050 Y72.917 E0.0616
G1 X84.605 Y72.876 E0.0776
G1 X117.211 Y73.075 E1.0190
G1 X117.140 Y91.742 E1.5580
G1 X117.139 Y91.742 E1.5580
G1 X117.096 Y98.875 E1.7639
G1 X84.457 Y98.676 E2.7063
G1 X83.894 Y98.629 E2.7226
G1 X83.376 Y98.501 E2.7380
G1 X82.884 Y98.294 E2.7534
G1 X82.431 Y98.013 E2.7688
G1 X82.028 Y97.664 E2.7842
G1 X81.684 Y97.256 E2.7996
G1 X81.408 Y96.800 E2.8150
G1 X81.207 Y96.306 E2.8304
G1 X81.086 Y95.787 E2.8458
G1 X81.046 Y95.231 E2.8619
G1 X81.161 Y76.279 E3.4091
G1 X81.209 Y75.723 E3.4252
G1 X81.334 Y75.213 E3.4403
G1 X81.542 Y74.718 E3.4558
G1 X81.823 Y74.264 E3.4712
G1 X82.173 Y73.858 E3.4867
; outer perimeter
G1 X81.891 Y73.573 F6600
G92 E0
G1 X82.344 Y73.191 E0.0171 F750
G1 X82.853 Y72.883 E0.0343
G1 X83.409 Y72.656 E0.0516
G1 X83.990 Y72.520 E0.0688
G1 X84.592 Y72.476 E0.0863
G1 X117.613 Y72.678 E1.0397
G1 X117.540 Y91.585 E1.5855
G1 X117.493 Y99.278 E1.8076
G1 X84.439 Y99.076 E2.7620
G1 X83.829 Y99.025 E2.7797
G1 X83.250 Y98.882 E2.7969
G1 X82.700 Y98.650 E2.8141
G1 X82.193 Y98.336 E2.8313
G1 X81.742 Y97.946 E2.8485
G1 X81.358 Y97.490 E2.8658
G1 X81.050 Y96.980 E2.8830
G1 X80.825 Y96.428 E2.9002
G1 X80.689 Y95.847 E2.9174
G1 X80.645 Y95.245 E2.9348
G1 X80.761 Y76.261 E3.4829
G1 X80.813 Y75.658 E3.5004
G1 X80.953 Y75.087 E3.5174
G1 X81.185 Y74.534 E3.5347
G1 X81.499 Y74.027 E3.5519
G1 X81.891 Y73.573 E3.5692
; inner perimeter
G1 X98.093 Y79.543 F6600
G92 E0
G1 X94.406 Y85.680 E0.2067 F1125
G1 X97.876 Y91.941 E0.4134
G1 X105.283 Y92.071 E0.6273
G1 X108.971 Y85.934 E0.8340
G1 X105.500 Y79.673 E1.0407
G1 X98.093 Y79.543 E1.2545
; outer perimeter
G1 X98.317 Y79.947 F6600
G92 E0
G1 X94.868 Y85.688 E0.1934 F750
G1 X98.114 Y91.546 E0.3867
G1 X105.059 Y91.667 E0.5873
G1 X108.509 Y85.926 E0.7806
G1 X105.262 Y80.069 E0.9740
G1 X98.317 Y79.947 E1.1745
; solid layer
G1 X97.979 Y79.221 F6600
G92 E0
G1 X103.886 Y73.314 E0.2412 F1200
G1 X104.449 Y73.317 E0.2574
G1 X98.535 Y79.231 E0.4989
G1 X99.091 Y79.241 E0.5149
G1 X105.011 Y73.321 E0.7567
G1 X105.573 Y73.324 E0.7729
G1 X99.647 Y79.250 E1.0149
G1 X100.203 Y79.260 E1.0309
G1 X106.135 Y73.328 E1.2731
G1 X106.698 Y73.331 E1.2894
G1 X100.759 Y79.270 E1.5319
G1 X101.315 Y79.280 E1.5479
G1 X107.260 Y73.335 E1.7906
G1 X107.822 Y73.338 E1.8069
G1 X101.871 Y79.289 E2.0499
G1 X102.427 Y79.299 E2.0659
G1 X108.384 Y73.341 E2.3092
G1 X108.947 Y73.345 E2.3254
G1 X102.983 Y79.309 E2.5689
G1 X103.539 Y79.318 E2.5850
G1 X109.509 Y73.348 E2.8287
G1 X110.071 Y73.352 E2.8450
G1 X104.095 Y79.328 E3.0890
G1 X104.651 Y79.338 E3.1050
G1 X110.633 Y73.355 E3.3493
G1 X111.196 Y73.359 E3.3655
G1 X105.207 Y79.347 E3.6101
G1 X105.690 Y79.356 E3.6240
G1 X105.716 Y79.404 E3.6256
G1 X111.758 Y73.362 E3.8723
G1 X112.320 Y73.365 E3.8885
G1 X105.918 Y79.768 E4.1499
G1 X106.120 Y80.131 E4.1619
G1 X112.882 Y73.369 E4.4380
G1 X113.445 Y73.372 E4.4543
G1 X106.322 Y80.495 E4.7451
G1 X106.523 Y80.859 E4.7571
G1 X114.007 Y73.376 E5.0627
G1 X114.569 Y73.379 E5.0789
G1 X106.725 Y81.223 E5.3992
G1 X106.927 Y81.587 E5.4112
G1 X115.132 Y73.383 E5.7462
G1 X115.694 Y73.386 E5.7625
G1 X107.129 Y81.951 E6.1122
G1 X107.330 Y82.315 E6.1242
G1 X116.256 Y73.390 E6.4886
G1 X116.818 Y73.393 E6.5049
G1 X107.532 Y82.679 E6.8840
G1 X107.734 Y83.043 E6.8960
G1 X116.888 Y73.889 E7.2698
G1 X116.886 Y74.457 E7.2862
G1 X107.936 Y83.407 E7.6517
G1 X108.137 Y83.771 E7.6637
G1 X116.884 Y75.025 E8.0208
G1 X116.882 Y75.592 E8.0372
G1 X108.339 Y84.135 E8.3860
G1 X108.541 Y84.499 E8.3980
G1 X116.879 Y76.160 E8.7385
G1 X116.877 Y76.728 E8.7549
G1 X108.743 Y84.863 E9.0870
G1 X108.944 Y85.227 E9.0990
G1 X116.875 Y77.296 E9.4228
G1 X116.873 Y77.864 E9.4392
G1 X109.146 Y85.591 E9.7547
G1 X109.340 Y85.941 E9.7663
G1 X109.307 Y85.995 E9.7681
G1 X116.871 Y78.432 E10.0769
G1 X116.869 Y79.000 E10.0933
G1 X108.456 Y87.412 E10.4368
G1 X107.604 Y88.830 E10.4846
G1 X116.866 Y79.567 E10.8628
G1 X116.864 Y80.135 E10.8791
G1 X106.752 Y90.247 E11.2920
G1 X116.550 Y98.552 F6600
G92 E0
G1 X116.779 Y98.322 E0.0094 F1200
G1 X116.783 Y97.753 E0.0258
G1 X115.987 Y98.548 E0.0583
G1 X115.425 Y98.545 E0.0745
G1 X116.786 Y97.184 E0.1301
G1 X116.789 Y96.615 E0.1465
G1 X114.863 Y98.541 E0.2252
G1 X114.301 Y98.538 E0.2414
G1 X116.793 Y96.046 E0.3432
G1 X116.796 Y95.476 E0.3596
G1 X113.738 Y98.535 E0.4845
G1 X113.176 Y98.531 E0.5007
G1 X116.800 Y94.907 E0.6487
G1 X116.803 Y94.338 E0.6651
G1 X112.614 Y98.528 E0.8362
G1 X112.052 Y98.524 E0.8524
G1 X116.807 Y93.769 E1.0466
G1 X116.810 Y93.200 E1.0630
G1 X111.489 Y98.521 E1.2803
G1 X110.927 Y98.517 E1.2965
G1 X116.814 Y92.631 E1.5369
G1 X116.817 Y92.062 E1.5533
G1 X110.365 Y98.514 E1.8167
G1 X109.803 Y98.511 E1.8330
G1 X116.821 Y91.493 E2.1195
G1 X116.823 Y90.925 E2.1359
G1 X109.240 Y98.507 E2.4455
G1 X108.678 Y98.504 E2.4618
G1 X116.825 Y90.357 E2.7944
G1 X116.827 Y89.789 E2.8108
G1 X108.116 Y98.500 E3.1665
G1 X107.554 Y98.497 E3.1827
G1 X116.829 Y89.221 E3.5614
G1 X116.831 Y88.653 E3.5778
G1 X106.991 Y98.493 E3.9796
G1 X106.429 Y98.490 E3.9959
G1 X116.834 Y88.085 E4.4207
G1 X116.836 Y87.517 E4.4371
G1 X105.867 Y98.487 E4.8850
G1 X105.305 Y98.483 E4.9012
G1 X116.838 Y86.950 E5.3721
G1 X116.840 Y86.382 E5.3885
G1 X104.742 Y98.480 E5.8825
G1 X104.180 Y98.476 E5.8987
G1 X116.842 Y85.814 E6.4157
G1 X116.845 Y85.246 E6.4321
G1 X103.618 Y98.473 E6.9722
G1 X103.056 Y98.469 E6.9884
G1 X116.847 Y84.678 E7.5515
G1 X116.849 Y84.110 E7.5679
G1 X102.493 Y98.466 E8.1540
G1 X101.931 Y98.463 E8.1703
G1 X116.851 Y83.542 E8.7795
G1 X116.853 Y82.975 E8.7959
G1 X101.369 Y98.459 E9.4281
G1 X100.807 Y98.456 E9.4443
G1 X116.855 Y82.407 E10.0996
G1 X116.858 Y81.839 E10.1160
G1 X100.244 Y98.452 E10.7944
G1 X99.682 Y98.449 E10.8106
G1 X116.860 Y81.271 E11.5120
G1 X116.862 Y80.703 E11.5284
G1 X105.901 Y91.664 E11.9759
G1 X105.462 Y92.394 E12.0005
G1 X105.176 Y92.389 E12.0088
G1 X99.120 Y98.445 E12.2560
G1 X98.558 Y98.442 E12.2723
G1 X104.620 Y92.379 E12.5198
G1 X104.064 Y92.370 E12.5359
G1 X97.995 Y98.438 E12.7837
G1 X97.433 Y98.435 E12.7999
G1 X103.508 Y92.360 E13.0480
G1 X102.952 Y92.350 E13.0640
G1 X96.871 Y98.432 E13.3123
G1 X96.309 Y98.428 E13.3286
G1 X102.396 Y92.340 E13.5771
G1 X101.840 Y92.331 E13.5932
G1 X95.746 Y98.425 E13.8420
G1 X95.184 Y98.421 E13.8582
G1 X101.284 Y92.321 E14.1073
G1 X100.728 Y92.311 E14.1234
G1 X94.622 Y98.418 E14.3727
G1 X94.060 Y98.414 E14.3889
G1 X100.172 Y92.302 E14.6385
G1 X99.616 Y92.292 E14.6546
G1 X93.497 Y98.411 E14.9044
G1 X92.935 Y98.408 E14.9207
G1 X99.060 Y92.282 E15.1708
G1 X98.504 Y92.272 E15.1868
G1 X92.373 Y98.404 E15.4372
G1 X91.811 Y98.401 E15.4534
G1 X97.948 Y92.263 E15.7040
G1 X97.686 Y92.258 E15.7116
G1 X97.580 Y92.066 E15.7180
G1 X91.248 Y98.397 E15.9765
G1 X90.686 Y98.394 E15.9927
G1 X97.378 Y91.702 E16.2659
G1 X97.176 Y91.338 E16.2780
G1 X90.124 Y98.390 E16.5659
G1 X89.562 Y98.387 E16.5821
G1 X96.974 Y90.974 E16.8848
G1 X96.773 Y90.610 E16.8968
G1 X88.999 Y98.384 E17.2142
G1 X88.437 Y98.380 E17.2305
G1 X96.571 Y90.246 E17.5626
G1 X96.369 Y89.882 E17.5746
G1 X87.875 Y98.377 E17.9214
G1 X87.313 Y98.373 E17.9376
G1 X96.167 Y89.518 E18.2992
G1 X95.966 Y89.154 E18.3112
G1 X86.750 Y98.370 E18.6875
G1 X86.188 Y98.366 E18.7037
G1 X95.764 Y88.790 E19.0947
G1 X95.562 Y88.426 E19.1067
G1 X85.626 Y98.363 E19.5124
G1 X85.064 Y98.359 E19.5287
G1 X95.360 Y88.063 E19.9491
G1 X95.159 Y87.699 E19.9611
G1 X84.501 Y98.356 E20.3963
G1 X84.471 Y98.356 E20.3971
G1 X83.977 Y98.314 E20.4115
G1 X94.957 Y87.335 E20.8598
G1 X94.755 Y86.971 E20.8718
G1 X83.519 Y98.207 E21.3306
G1 X83.477 Y98.196 E21.3318
G1 X83.116 Y98.044 E21.3431
G1 X94.554 Y86.607 E21.8101
G1 X94.352 Y86.243 E21.8221
G1 X82.757 Y97.838 E22.2956
G1 X82.621 Y97.754 E22.3002
G1 X82.436 Y97.593 E22.3073
G1 X94.150 Y85.879 E22.7856
G1 X94.036 Y85.673 E22.7924
G1 X94.407 Y85.056 E22.8132
G1 X82.150 Y97.313 E23.3136
G1 X81.945 Y97.069 E23.3228
G1 X81.901 Y96.997 E23.3253
G1 X95.259 Y83.639 E23.8707
G1 X96.111 Y82.221 E23.9184
G1 X81.690 Y96.642 E24.5072
G1 X81.526 Y96.240 E24.5198
G1 X96.962 Y80.804 E25.1500
G1 X97.814 Y79.387 E25.1978
G1 X81.414 Y95.786 E25.8674
G1 X81.403 Y95.738 E25.8688
G1 X81.369 Y95.266 E25.8825
G1 X103.324 Y73.311 E26.7789
G1 X102.762 Y73.307 E26.7952
G1 X81.369 Y94.700 E27.6687
G1 X81.372 Y94.131 E27.6851
G1 X102.200 Y73.304 E28.5355
G1 X101.637 Y73.300 E28.5517
G1 X81.376 Y93.562 E29.3790
G1 X81.379 Y92.993 E29.3954
G1 X101.075 Y73.297 E30.1996
G1 X100.513 Y73.293 E30.2159
G1 X81.383 Y92.424 E30.9970
G1 X81.386 Y91.854 E31.0134
G1 X99.951 Y73.290 E31.7714
G1 X99.388 Y73.287 E31.7876
G1 X81.390 Y91.285 E32.5226
G1 X81.393 Y90.716 E32.5390
G1 X98.826 Y73.283 E33.2508
G1 X98.264 Y73.280 E33.2670
G1 X81.397 Y90.147 E33.9557
G1 X81.400 Y89.578 E33.9722
G1 X97.702 Y73.276 E34.6378
G1 X97.139 Y73.273 E34.6540
G1 X81.404 Y89.009 E35.2965
G1 X81.407 Y88.439 E35.3129
G1 X96.577 Y73.269 E35.9323
G1 X96.015 Y73.266 E35.9486
G1 X81.411 Y87.870 E36.5449
G1 X81.414 Y87.301 E36.5613
G1 X95.453 Y73.262 E37.1345
G1 X94.890 Y73.259 E37.1508
G1 X81.417 Y86.732 E37.7009
G1 X81.421 Y86.163 E37.7173
G1 X94.328 Y73.256 E38.2443
G1 X93.766 Y73.252 E38.2605
G1 X81.424 Y85.594 E38.7645
G1 X81.428 Y85.025 E38.7809
G1 X93.204 Y73.249 E39.2617
G1 X92.641 Y73.245 E39.2779
G1 X81.431 Y84.455 E39.7356
G1 X81.435 Y83.886 E39.7521
G1 X92.079 Y73.242 E40.1867
G1 X91.517 Y73.238 E40.2029
G1 X81.438 Y83.317 E40.6144
G1 X81.442 Y82.748 E40.6309
G1 X90.955 Y73.235 E41.0193
G1 X90.392 Y73.232 E41.0355
G1 X81.445 Y82.179 E41.4008
G1 X81.449 Y81.610 E41.4173
G1 X89.830 Y73.228 E41.7595
G1 X89.268 Y73.225 E41.7757
G1 X81.452 Y81.040 E42.0948
G1 X81.456 Y80.471 E42.1113
G1 X88.706 Y73.221 E42.4073
G1 X88.143 Y73.218 E42.4235
G1 X81.459 Y79.902 E42.6964
G1 X81.463 Y79.333 E42.7129
G1 X87.581 Y73.214 E42.9627
G1 X87.019 Y73.211 E42.9789
G1 X81.466 Y78.764 E43.2057
G1 X81.470 Y78.195 E43.2221
G1 X86.457 Y73.208 E43.4257
G1 X85.894 Y73.204 E43.4419
G1 X81.473 Y77.625 E43.6225
G1 X81.477 Y77.056 E43.6389
G1 X85.332 Y73.201 E43.7963
G1 X84.770 Y73.197 E43.8126
G1 X81.480 Y76.487 E43.9469
G1 X81.481 Y76.293 E43.9525
G1 X81.516 Y75.886 E43.9643
G1 X84.173 Y73.228 E44.0728
G1 X84.098 Y73.234 E44.0749
G1 X83.629 Y73.344 E44.0889
G1 X83.398 Y73.438 E44.0961
G1 X81.723 Y75.112 E44.1644
G92 E0
G1 E-1.9000 F2100
; support
G1 X97.739 Y81.880 F6600
G1 E0.0000 F2100
G92 E0
G1 X105.663 Y81.880 E0.2288 F1200
G1 X105.663 Y82.880 E0.2577
G1 X97.343 Y82.880 E0.4979
G1 X97.343 Y83.880 E0.5267
G1 X105.663 Y83.880 E0.7669
G1 X105.663 Y84.880 E0.7958
G1 X97.343 Y84.880 E1.0360
G1 X97.343 Y85.880 E1.0649
G1 X105.663 Y85.880 E1.3051
G1 X105.663 Y86.880 E1.3340
G1 X97.343 Y86.880 E1.5742
G1 X97.343 Y87.880 E1.6031
G1 X105.663 Y87.880 E1.8433
G1 X105.663 Y88.880 E1.8722
